static/brb/logo.svg

<?xml version="1.0" encoding="UTF-8"?><svg width="100%" height="100%" viewBox="0 0 1058.4 465.84" xmlns="http://www.w3.org/2000/svg"><g><path d="m91.053 0-13.719 57.707 102.28 0.039063h24c65.747 0 105.91 26.44 94.746 73.4-12.147 51.133-69.613 73.4-130.67 73.4h-22.947l29.787-125.45h-102.27l-43.521 183.2h145.05c109.07 0 212.76-57.573 231.01-131.15 3.3467-13.507 2.8806-47.253-5.3594-67.359-0.21299-0.787-0.42594-1.4-1.1855-3-0.293-0.653-0.56012-3.6412 1.1465-4.2812 0.947-0.36 2.7069 1.4944 2.9336 2.041 0.853 2.24 1.5059 3.9062 1.5059 3.9062l92.293 260.6 234.97-265.21 99.535-0.089844h24c65.76 0 106.25 26.44 95.092 73.4-12.147 51.133-69.947 73.4-131 73.4h-22.959l29.799-125.47h-102.27l-43.533 183.21h145.07c109.05 0 213.48-57.4 231-131.15 17.52-73.75-59.107-131.15-168.69-131.15h-216.4s-57.319 67.88-67.959 80.693c-57.12 68.787-67.241 87.226-68.961 91.986 0.24-4.8-1.8138-23.412-26.174-92.959-6.48-18.52-27.359-79.721-27.359-79.721h-389.25zm408.77 324.16c-276.04 0-499.83 31.72-499.83 70.84s223.79 70.84 499.83 70.84c276.04 0 499.83-31.72 499.83-70.84s-223.79-70.84-499.83-70.84zm-18.094 48.627c63.04 0 114.13 10.573 114.13 23.613s-51.095 23.613-114.13 23.613c-63.027 0-114.13-10.573-114.13-23.613s51.106-23.613 114.13-23.613z"/><path d="m963.6 445.05-0.73242 5.1738h13.08l-5.1074 36.32h5.7207l5.1055-36.32h11.68l0.72071-5.1738h-30.467zm41.215 0-13.693 41.494h5.4785l10.215-31.76h0.1328l7.1718 31.76 16.668-31.453h0.1191v31.453h5.4805v-41.494h-5.4805l-14.906 28.107-6.4395-28.107h-4.746z" display="none"/></g></svg>

<svg width="1059" height="466" viewBox="0 0 1059 466" fill="none" xmlns="http://www.w3.org/2000/svg">
<path d="M91.0532 -3.15001e-05L77.3342 57.707L179.614 57.746H203.614C269.361 57.746 309.524 84.186 298.36 131.146C286.213 182.279 228.747 204.546 167.69 204.546H144.743L174.53 79.096H72.2602L28.7392 262.296H173.789C282.859 262.296 386.549 204.723 404.799 131.146C408.146 117.639 407.68 83.893 399.44 63.787C399.227 63 399.014 62.387 398.254 60.787C397.961 60.134 397.694 57.1458 399.401 56.5058C400.348 56.1458 402.108 58.0002 402.334 58.5468C403.187 60.7868 403.84 62.453 403.84 62.453L496.133 323.053L731.103 57.843L830.638 57.7532H854.638C920.398 57.7532 960.888 84.1932 949.73 131.153C937.583 182.286 879.783 204.553 818.73 204.553H795.771L825.57 79.0832H723.3L679.767 262.293H824.837C933.887 262.293 1038.32 204.893 1055.84 131.143C1073.36 57.3932 996.73 -0.0068125 887.147 -0.0068125H670.747C670.747 -0.0068125 613.428 67.8732 602.788 80.6862C545.668 149.473 535.547 167.912 533.827 172.672C534.067 167.872 532.013 149.26 507.653 79.7132C501.173 61.1932 480.294 -0.0078125 480.294 -0.0078125H91.0443L91.0532 -3.15001e-05ZM499.823 324.16C223.783 324.16 -0.00683594 355.88 -0.00683594 395C-0.00683594 434.12 223.783 465.84 499.823 465.84C775.863 465.84 999.653 434.12 999.653 395C999.653 355.88 775.863 324.16 499.823 324.16ZM481.729 372.787C544.769 372.787 595.859 383.36 595.859 396.4C595.859 409.44 544.764 420.013 481.729 420.013C418.702 420.013 367.599 409.44 367.599 396.4C367.599 383.36 418.705 372.787 481.729 372.787Z" fill="white"/>
</svg>
